mobile/apps/auth/assets/custom-icons/icons/proton_wallet.svg

<svg xmlns="http://www.w3.org/2000/svg" fill="none" viewBox="0 0 1683 1461"><path fill="url(#a)" fill-rule="evenodd" d="M333.319 1113.48c-71.91 0-130.208-58.3-130.208-130.206 0-71.91 58.298-130.208 130.208-130.208s130.218 58.298 130.218 130.208c0 71.906-58.298 130.206-130.218 130.206Z" clip-rule="evenodd"/><path fill="url(#b)" fill-rule="evenodd" d="M1682.53 713.397v594.053c0 84.39-68.42 152.81-152.81 152.81H248.509l3.01-3.47L512.455 1156c1.29-1.36 2.561-2.74 3.811-4.14h.01c39.465-43.97 63.729-103.65 63.729-169.376 0-135.138-102.555-244.714-229.032-244.714H-.006V153.63C-.006 69.238 68.414.818 152.805.818h817.144c393.541 0 712.581 319.035 712.581 712.579Z" clip-rule="evenodd"/><path fill="#6D4AFF" fill-rule="evenodd" d="M1327.42 774.325v685.935H248.509l3.01-3.47L512.455 1156c1.29-1.36 2.561-2.74 3.811-4.14h.01c39.465-43.97 63.729-103.65 63.729-169.376 0-135.138-102.555-244.714-229.032-244.714H-.006V241.191h794.29c294.446 0 533.136 238.694 533.136 533.134Z" clip-rule="evenodd"/><path fill="url(#c)" fill-opacity=".9" fill-rule="evenodd" d="M1327.42 774.325v685.935H248.509l3.01-3.47L512.455 1156c1.29-1.36 2.561-2.74 3.811-4.14h.01c39.465-43.97 63.729-103.65 63.729-169.376 0-135.138-102.555-244.714-229.032-244.714H-.006V241.191h794.29c294.446 0 533.136 238.694 533.136 533.134Z" clip-rule="evenodd"/><path fill="#FFBB93" d="m516.046 1151.86-3.591 4.14-260.936 300.79-3.01 3.47h-95.704c-84.391 0-152.81-68.42-152.81-152.81v-82.97l297.85 2.31 53.128.41a211.433 211.433 0 0 0 11.511-.31c.06 0 .11 0 .17-.01.941-.05 1.881-.11 2.821-.17 59.068-4.01 112.055-31.96 150.561-74.85h.01Z"/><defs><linearGradient id="a" x1="248.534" x2="432.469" y1="1075.2" y2="913.224" gradientUnits="userSpaceOnUse"><stop stop-color="#EA777D"/><stop offset=".479" stop-color="#DC6E8E"/><stop offset=".764" stop-color="#D2699A"/><stop offset="1" stop-color="#C864A6"/></linearGradient><linearGradient id="b" x1="-210.798" x2="1871.67" y1="170.667" y2="979.674" gradientUnits="userSpaceOnUse"><stop stop-color="#957AFD"/><stop offset="1" stop-color="#FFC6C6"/></linearGradient><linearGradient id="c" x1="1252.32" x2="619.247" y1="426.167" y2="1730.93" gradientUnits="userSpaceOnUse"><stop offset=".15" stop-color="#FA528E" stop-opacity="0"/><stop offset=".721" stop-color="#FF8065"/><stop offset="1" stop-color="#FFA51F"/></linearGradient></defs></svg>

<svg width="1683" height="1461" viewBox="0 0 1683 1461" fill="none" xmlns="http://www.w3.org/2000/svg">
<path fill-rule="evenodd" clip-rule="evenodd" d="M333.319 1113.48C261.409 1113.48 203.111 1055.18 203.111 983.274C203.111 911.364 261.409 853.066 333.319 853.066C405.229 853.066 463.537 911.364 463.537 983.274C463.537 1055.18 405.239 1113.48 333.319 1113.48Z" fill="url(#paint0_linear_3766_630)"/>
<path fill-rule="evenodd" clip-rule="evenodd" d="M1682.53 713.397V1307.45C1682.53 1391.84 1614.11 1460.26 1529.72 1460.26H248.509L251.519 1456.79L512.455 1156C513.745 1154.64 515.016 1153.26 516.266 1151.86H516.276C555.741 1107.89 580.005 1048.21 580.005 982.484C580.005 847.346 477.45 737.77 350.973 737.77H-0.00585938V153.63C-0.00585938 69.2378 68.4136 0.818359 152.805 0.818359H969.949C1363.49 0.818359 1682.53 319.853 1682.53 713.397Z" fill="url(#paint1_linear_3766_630)"/>
<path fill-rule="evenodd" clip-rule="evenodd" d="M1327.42 774.325V1460.26H248.509L251.519 1456.79L512.455 1156C513.745 1154.64 515.016 1153.26 516.266 1151.86H516.276C555.741 1107.89 580.005 1048.21 580.005 982.484C580.005 847.346 477.45 737.77 350.973 737.77H-0.00585938V241.191H794.284C1088.73 241.191 1327.42 479.885 1327.42 774.325Z" fill="#6D4AFF"/>
<path fill-rule="evenodd" clip-rule="evenodd" d="M1327.42 774.325V1460.26H248.509L251.519 1456.79L512.455 1156C513.745 1154.64 515.016 1153.26 516.266 1151.86H516.276C555.741 1107.89 580.005 1048.21 580.005 982.484C580.005 847.346 477.45 737.77 350.973 737.77H-0.00585938V241.191H794.284C1088.73 241.191 1327.42 479.885 1327.42 774.325Z" fill="url(#paint2_linear_3766_630)" fill-opacity="0.9"/>
<path d="M516.046 1151.86L512.455 1156L251.519 1456.79L248.509 1460.26H152.805C68.4136 1460.26 -0.00585938 1391.84 -0.00585938 1307.45V1224.48L297.845 1226.79L350.973 1227.2C352.923 1227.2 354.873 1227.17 356.814 1227.12C358.714 1227.07 360.604 1226.99 362.484 1226.89C362.544 1226.89 362.594 1226.89 362.654 1226.88C363.595 1226.83 364.535 1226.77 365.475 1226.71C424.543 1222.7 477.53 1194.75 516.036 1151.86H516.046Z" fill="#FFBB93"/>
<defs>
<linearGradient id="paint0_linear_3766_630" x1="248.534" y1="1075.2" x2="432.469" y2="913.224" gradientUnits="userSpaceOnUse">
<stop stop-color="#EA777D"/>
<stop offset="0.479" stop-color="#DC6E8E"/>
<stop offset="0.764" stop-color="#D2699A"/>
<stop offset="1" stop-color="#C864A6"/>
</linearGradient>
<linearGradient id="paint1_linear_3766_630" x1="-210.798" y1="170.667" x2="1871.67" y2="979.674" gradientUnits="userSpaceOnUse">
<stop stop-color="#957AFD"/>
<stop offset="1" stop-color="#FFC6C6"/>
</linearGradient>
<linearGradient id="paint2_linear_3766_630" x1="1252.32" y1="426.167" x2="619.247" y2="1730.93" gradientUnits="userSpaceOnUse">
<stop offset="0.149916" stop-color="#FA528E" stop-opacity="0"/>
<stop offset="0.720842" stop-color="#FF8065"/>
<stop offset="1" stop-color="#FFA51F"/>
</linearGradient>
</defs>
</svg>
